X:1
T:Plangsty Charles Coote
T:Plangsty Charles Coote
T:Carolan
C:Carolan
L:1/8
M:4/4
K:C
V:1 treble 
V:1
 (GF) | (E2 G2) (D2 G2) | (FEDC) (.E2 .G2) | (AB) c2 .d(edc) | (cBAB) G2 (ed) | %5
 (.c2 .g2) (ga)(gf) | (ed)(ef) .g2 fe | .f(edc) .c(BAB) |{BcB} c4 c2 :: (cd) | .e2 .g2 .g(agf) | %11
 .e(fge) (.c'2 .c2) | .e(fge) .c'(bag) | .a(gfe) d2 z2 |{g} .f(efd) e2 eg | .f(edc) .c(BAB) | %16
 .c(Bce) .d(BGB) | [Ec]4 [Ec]2 :| %18

